packages/ui-icons/src/Basic/32/Balance_32.svg

<svg xmlns="http://www.w3.org/2000/svg" viewBox="0 0 40 40"><path d="M20 4a16 16 0 1 0 16 16A16 16 0 0 0 20 4Zm0 30a14 14 0 1 1 14-14 14 14 0 0 1-14 14Zm2-22h-6v8h-2v2h2v2h-2v2h2v4h2v-4h6v-2h-6v-2h4a5 5 0 0 0 0-10Zm0 8h-4v-6h4a3 3 0 0 1 0 6Z"/></svg>

<svg id="Ready" xmlns="http://www.w3.org/2000/svg" viewBox="0 0 40 40"><title>Megaicons_work_32_1.8_cp</title><path d="M20,4A16,16,0,1,0,36,20,16,16,0,0,0,20,4Zm0,30A14,14,0,1,1,34,20,14,14,0,0,1,20,34Zm2-22H16v8H14v2h2v2H14v2h2v4h2V26h6V24H18V22h4a5,5,0,0,0,0-10Zm0,8H18V14h4a3,3,0,0,1,0,6Z"/></svg>
